X: 43
%%NRChange 2020-01-27
T: Liten Lek
C: Jonas \AAkerlund
O: Sweden
R: March
M: 4/4
L: 1/8
K:A
P: A
|:E2 | "A"A2A2 F2 GA| "E"B2B2 G2E2|"A"c2 BA "D"dcBA|"E"B6 E2|
"A"A2A2 F2 GA| "E"B2B2 G2Ed|"A"c2 BA "E"cBAG |"A"A6:|
P: B
|:cd|"A"e2e2 dcBA|"D"d2d2 "E"B2cd | "A"c2 BA "D"dcBA|"E"B6 cd|
"A"e2e2 dcBA|"D"d2d2 "E"B2cd |"A"c2 BA "E"cBAG |"A"A6:|

